X: 1
T: Boolavogue
R: waltz
M: 3/4
L: 1/8
K: Dmaj
"D"D2|D4 A,2|D2F2A2|"G"d4c2|Bd3 BB|"A"A4 B2|"Bm"FE D3F|"Em"E4 D2|"G"B,4"A7"C2|
"D"D4 A,2|D2F2A2|"G"d4c2|Bd3 B2|"D"A4B2|"Bm"FED2F2|"A7"E4C2|"D"D4F2|
A4F2|"F#m"AB3c2|"G"d4c2|B2d2B2|"D"A4B2|"Bm"F4 DF|"Em"E4 D2|"G"B,4 "A7"C2|
"D"D4 A,2|D4 FA|"G"d4 c2|Bd3B2|"D"A4B2|"Bm"FED2F2|"A7"E4C2|"D"D4:|


Tune 5322	Setting 23083

